X:501
T:Slow March. RH.501
R:march
S:Rev.R.Harrison’s MS,c1815,Cumbria
O:England
A:Temple Sowerby,Cumbria
Z:vmp.Simon Wilson. Review PJH, 2008.
M:C
L:1/8
Q:1/2=60
K:G
de/f/|g4 d4|cBAG GFED|G2Bd e>deB|A2A>A A2B2|!
c>c e>e AA cc|B>B d>d GG BB|Ee d/c/B/A/G2F2|G2G>G G2:|!
|:B>A|GB dg gb b/a/g/f/|g2G>G G2c>B|\
Ac ea ac’ c’/b/a/g/|f2d>d d2fe/f/|!
g>g b>b eegg|f>f a>a ddff|gb a/g/f/e/d2c2|d2d>d d2|]

